X: 1484
T: Andrew Carr
R: slip jig
M: 9/8
K: Dmajor
|A|:d2B AFA ABc|d2A def g2e|d2B AFA ABc|d2D DEF E2D:|
|:F2A AFA AFA|G2B BGB BAG|F2A AGA ABc|d2D DEF E2D:|
|:FGA ABc dcd|e2E E2F GFE|FGA AGA ABc|d2D DEF E2D:|
D|:dcB AGF ABc|dcd efg fge|dcB AGF ABc|d2D DAG FED:|
|:F2A AFA AFA|G2B BGB BGB|F2A AGA ABc|d2D DAG FED:|
|:FGA ABc dcd|e2E E2F GFE|FED AGF ABc|d2D DAG FED:|

